static/fa/svgs/solid/satellite.svg

<svg xmlns="http://www.w3.org/2000/svg" viewBox="0 0 512 512"><!--! Font Awesome Free 6.1.1 by @fontawesome - https://fontawesome.com License - https://fontawesome.com/license/free (Icons: CC BY 4.0, Fonts: SIL OFL 1.1, Code: MIT License) Copyright 2022 Fonticons, Inc.--><path d="m502.8 264.1-80.37-80.37 47.87-47.88c13-13.12 13-34.37 0-47.5l-47.5-47.5c-13.12-13.12-34.38-13.12-47.5 0l-47.88 47.88L247.1 9.25C241 3.375 232.9 0 224.5 0 216 0 207.88 3.375 202 9.25L105.25 106c-12.38 12.5-12.38 32.62 0 45.12l80.25 80.38-9.7 9.9c-54-24.5-116.3-22.5-168.5 5.375-8.498 4.625-9.623 16.38-2.873 23.25l107.6 107.5-17.88 17.75c-2.625-.75-5-1.625-7.75-1.625-17.75 0-32 14.38-32 32 0 17.75 14.25 32 32 32 17.62 0 32-14.25 32-32 0-2.75-.875-5.125-1.625-7.75l17.75-17.88 107.6 107.6c6.75 6.75 18.62 5.625 23.12-2.875 27.88-52.25 29.88-114.5 5.375-168.5l10-9.873 80.25 80.36c12.5 12.38 32.62 12.38 44.1 0l96.75-96.75C508.6 304.1 512 295.1 512 287.5c0-8.4-3.4-17.4-9.2-23.4zm-283.3-66.7-68.9-68.9 73.87-73.75 68.86 68.88-73.83 73.77zm164 164-68.9-68.9 73.75-73.88 68.88 68.87-73.73 73.91z"/></svg>

<svg xmlns="http://www.w3.org/2000/svg" viewBox="0 0 512 512"><!--! Font Awesome Free 6.1.1 by @fontawesome - https://fontawesome.com License - https://fontawesome.com/license/free (Icons: CC BY 4.0, Fonts: SIL OFL 1.1, Code: MIT License) Copyright 2022 Fonticons, Inc. --><path d="M502.8 264.1l-80.37-80.37l47.87-47.88c13-13.12 13-34.37 0-47.5l-47.5-47.5c-13.12-13.12-34.38-13.12-47.5 0l-47.88 47.88L247.1 9.25C241 3.375 232.9 0 224.5 0c-8.5 0-16.62 3.375-22.5 9.25l-96.75 96.75c-12.38 12.5-12.38 32.62 0 45.12L185.5 231.5L175.8 241.4c-54-24.5-116.3-22.5-168.5 5.375c-8.498 4.625-9.623 16.38-2.873 23.25l107.6 107.5l-17.88 17.75c-2.625-.75-5-1.625-7.75-1.625c-17.75 0-32 14.38-32 32c0 17.75 14.25 32 32 32c17.62 0 32-14.25 32-32c0-2.75-.875-5.125-1.625-7.75l17.75-17.88l107.6 107.6c6.75 6.75 18.62 5.625 23.12-2.875c27.88-52.25 29.88-114.5 5.375-168.5l10-9.873l80.25 80.36c12.5 12.38 32.62 12.38 44.1 0l96.75-96.75C508.6 304.1 512 295.1 512 287.5C512 279.1 508.6 270.1 502.8 264.1zM219.5 197.4L150.6 128.5l73.87-73.75l68.86 68.88L219.5 197.4zM383.5 361.4L314.6 292.5l73.75-73.88l68.88 68.87L383.5 361.4z"/></svg>
